X:766
T:Dandy Denny Cronin
R:reel
S:J\"orgen Fischer
Z:id:hn-reel-766
M:C|
K:Amix
eAAc e2ef | gafd edBA | eAAc e3f | ~g3d BA~A2 |
eAAc e2ef | gafd edBA | dBde ~g3a | geed BA~A2 :|
|: a3f ~g3a | gefd ~e2dB | eAef ~g3a | geed BA~A2 |
a3f ~g3a | gefd ~e2dB | dBde ~g3a | geed BA~A2 :|
P:variations
|: eAAc e2ef | gefd edBd | eAAc e3f | gfgd BA~A2 |
eAAc e2ef | gefd edBA | dBde ~g3a | geed BA~A2 :|
|: a2ef ~g3a | gefd ~e2dB | a2ef ~g3a | geed BA~A2 |
a2ef ~g3a | gefd ~e2dB | dBde ~g3a | geed BA~A2 :|

